images/5459710.svg

<?xml version="1.0" encoding="UTF-8"?>
<svg xmlns="http://www.w3.org/2000/svg" xmlns:xlink="http://www.w3.org/1999/xlink" width="300pt" height="300pt" viewBox="0 0 300 300" version="1.1">
<defs>
<g>
<symbol overflow="visible" id="glyph0-0">
<path style="stroke:none;" d="M 0.453125 1.59375 L 0.453125 -6.34375 L 4.953125 -6.34375 L 4.953125 1.59375 Z M 0.953125 1.09375 L 4.453125 1.09375 L 4.453125 -5.84375 L 0.953125 -5.84375 Z M 0.953125 1.09375 "/>
</symbol>
<symbol overflow="visible" id="glyph0-1">
<path style="stroke:none;" d="M 3.546875 -5.953125 C 2.898438 -5.953125 2.382812 -5.710938 2 -5.234375 C 1.625 -4.753906 1.4375 -4.101562 1.4375 -3.28125 C 1.4375 -2.445312 1.625 -1.789062 2 -1.3125 C 2.382812 -0.832031 2.898438 -0.59375 3.546875 -0.59375 C 4.191406 -0.59375 4.703125 -0.832031 5.078125 -1.3125 C 5.453125 -1.789062 5.640625 -2.445312 5.640625 -3.28125 C 5.640625 -4.101562 5.453125 -4.753906 5.078125 -5.234375 C 4.703125 -5.710938 4.191406 -5.953125 3.546875 -5.953125 Z M 3.546875 -6.6875 C 4.460938 -6.6875 5.195312 -6.375 5.75 -5.75 C 6.300781 -5.132812 6.578125 -4.3125 6.578125 -3.28125 C 6.578125 -2.238281 6.300781 -1.410156 5.75 -0.796875 C 5.195312 -0.179688 4.460938 0.125 3.546875 0.125 C 2.617188 0.125 1.878906 -0.179688 1.328125 -0.796875 C 0.773438 -1.410156 0.5 -2.238281 0.5 -3.28125 C 0.5 -4.3125 0.773438 -5.132812 1.328125 -5.75 C 1.878906 -6.375 2.617188 -6.6875 3.546875 -6.6875 Z M 3.546875 -6.6875 "/>
</symbol>
<symbol overflow="visible" id="glyph0-2">
<path style="stroke:none;" d="M 0.890625 -6.5625 L 2.078125 -6.5625 L 4.984375 -1.078125 L 4.984375 -6.5625 L 5.84375 -6.5625 L 5.84375 0 L 4.65625 0 L 1.75 -5.484375 L 1.75 0 L 0.890625 0 Z M 0.890625 -6.5625 "/>
</symbol>
<symbol overflow="visible" id="glyph0-3">
<path style="stroke:none;" d="M 0.890625 -6.5625 L 1.765625 -6.5625 L 1.765625 -3.875 L 5 -3.875 L 5 -6.5625 L 5.890625 -6.5625 L 5.890625 0 L 5 0 L 5 -3.125 L 1.765625 -3.125 L 1.765625 0 L 0.890625 0 Z M 0.890625 -6.5625 "/>
</symbol>
<symbol overflow="visible" id="glyph0-4">
<path style="stroke:none;" d="M 0.890625 -6.5625 L 4.65625 -6.5625 L 4.65625 -5.8125 L 1.765625 -5.8125 L 1.765625 -3.875 L 4.375 -3.875 L 4.375 -3.140625 L 1.765625 -3.140625 L 1.765625 0 L 0.890625 0 Z M 0.890625 -6.5625 "/>
</symbol>
</g>
</defs>
<g id="surface46657">
<rect x="0" y="0" width="300" height="300" style="fill:rgb(100%,100%,100%);fill-opacity:1;stroke:none;"/>
<path style="fill:none;stroke-width:1.2;stroke-linecap:butt;stroke-linejoin:miter;stroke:rgb(0%,0%,0%);stroke-opacity:1;stroke-miterlimit:10;" d="M 118.894531 192.8125 L 130.972656 177.558594 "/>
<path style="fill:none;stroke-width:1.2;stroke-linecap:butt;stroke-linejoin:miter;stroke:rgb(0%,0%,0%);stroke-opacity:1;stroke-miterlimit:10;" d="M 130.367188 179.765625 L 137.203125 181.648438 "/>
<path style="fill:none;stroke-width:1.2;stroke-linecap:butt;stroke-linejoin:miter;stroke:rgb(100%,0%,0%);stroke-opacity:1;stroke-miterlimit:10;" d="M 137.203125 181.648438 L 144.042969 183.527344 "/>
<path style="fill:none;stroke-width:1.2;stroke-linecap:butt;stroke-linejoin:miter;stroke:rgb(0%,0%,0%);stroke-opacity:1;stroke-miterlimit:10;" d="M 131.582031 175.351562 L 138.417969 177.234375 "/>
<path style="fill:none;stroke-width:1.2;stroke-linecap:butt;stroke-linejoin:miter;stroke:rgb(100%,0%,0%);stroke-opacity:1;stroke-miterlimit:10;" d="M 138.417969 177.234375 L 145.257812 179.113281 "/>
<path style="fill:none;stroke-width:1.2;stroke-linecap:butt;stroke-linejoin:miter;stroke:rgb(0%,0%,0%);stroke-opacity:1;stroke-miterlimit:10;" d="M 130.972656 177.558594 L 127.386719 168.515625 "/>
<path style="fill:none;stroke-width:1.2;stroke-linecap:butt;stroke-linejoin:miter;stroke:rgb(0%,0%,100%);stroke-opacity:1;stroke-miterlimit:10;" d="M 127.386719 168.515625 L 123.800781 159.472656 "/>
<path style=" stroke:none;fill-rule:nonzero;fill:rgb(100%,100%,100%);fill-opacity:1;" d="M 140.648438 175.820312 L 148.648438 175.820312 L 148.648438 186.820312 L 140.648438 186.820312 Z M 140.648438 175.820312 "/>
<g style="fill:rgb(100%,0%,0%);fill-opacity:1;">
  <use xlink:href="#glyph0-1" x="140.648438" y="184.483398"/>
</g>
<path style="fill:none;stroke-width:1.2;stroke-linecap:butt;stroke-linejoin:miter;stroke:rgb(0%,0%,100%);stroke-opacity:1;stroke-miterlimit:10;" d="M 123.800781 159.472656 L 114.378906 157.058594 "/>
<path style="fill:none;stroke-width:1.2;stroke-linecap:butt;stroke-linejoin:miter;stroke:rgb(0%,0%,0%);stroke-opacity:1;stroke-miterlimit:10;" d="M 114.378906 157.058594 L 104.953125 154.644531 "/>
<path style="fill:none;stroke-width:1.2;stroke-linecap:butt;stroke-linejoin:miter;stroke:rgb(0%,0%,0%);stroke-opacity:1;stroke-miterlimit:10;" d="M 134.21875 143.039062 L 129.011719 151.257812 "/>
<path style="fill:none;stroke-width:1.2;stroke-linecap:butt;stroke-linejoin:miter;stroke:rgb(0%,0%,100%);stroke-opacity:1;stroke-miterlimit:10;" d="M 129.011719 151.257812 L 123.800781 159.472656 "/>
<path style=" stroke:none;fill-rule:nonzero;fill:rgb(100%,100%,100%);fill-opacity:1;" d="M 120.800781 153.972656 L 127.800781 153.972656 L 127.800781 164.972656 L 120.800781 164.972656 Z M 120.800781 153.972656 "/>
<g style="fill:rgb(0%,0%,100%);fill-opacity:1;">
  <use xlink:href="#glyph0-2" x="120.800781" y="162.635742"/>
</g>
<path style="fill:none;stroke-width:1.2;stroke-linecap:butt;stroke-linejoin:miter;stroke:rgb(0%,0%,0%);stroke-opacity:1;stroke-miterlimit:10;" d="M 104.953125 154.644531 L 103.722656 135.226562 "/>
<path style="fill:none;stroke-width:1;stroke-linecap:butt;stroke-linejoin:miter;stroke:rgb(0%,0%,0%);stroke-opacity:1;stroke-miterlimit:10;" d="M 104.953125 154.644531 L 104.953125 154.644531 M 102.347656 156.125 L 103.011719 156.929688 M 99.738281 157.609375 L 101.070312 159.214844 M 97.128906 159.089844 L 99.125 161.5 M 94.523438 160.574219 L 97.183594 163.785156 M 91.914062 162.054688 L 95.238281 166.070312 M 89.304688 163.539062 L 93.296875 168.359375 M 87.777344 164.40625 L 92.160156 169.695312 "/>
<path style="fill:none;stroke-width:1.2;stroke-linecap:butt;stroke-linejoin:miter;stroke:rgb(0%,0%,0%);stroke-opacity:1;stroke-miterlimit:10;" d="M 103.722656 135.226562 L 121.8125 128.054688 "/>
<path style="fill:none;stroke-width:1.2;stroke-linecap:butt;stroke-linejoin:miter;stroke:rgb(0%,0%,0%);stroke-opacity:1;stroke-miterlimit:10;" d="M 107.21875 138.765625 L 121.691406 133.027344 "/>
<path style="fill:none;stroke-width:1.2;stroke-linecap:butt;stroke-linejoin:miter;stroke:rgb(0%,0%,0%);stroke-opacity:1;stroke-miterlimit:10;" d="M 121.8125 128.054688 L 134.21875 143.039062 "/>
<path style=" stroke:none;fill-rule:nonzero;fill:rgb(0%,0%,0%);fill-opacity:1;" d="M 134.21875 143.039062 L 150.28125 131.535156 L 145.371094 126.730469 Z M 134.21875 143.039062 "/>
<path style="fill:none;stroke-width:1.2;stroke-linecap:butt;stroke-linejoin:miter;stroke:rgb(0%,0%,0%);stroke-opacity:1;stroke-miterlimit:10;" d="M 134.21875 143.039062 L 149.472656 155.117188 "/>
<path style="fill:none;stroke-width:1.2;stroke-linecap:butt;stroke-linejoin:miter;stroke:rgb(0%,0%,0%);stroke-opacity:1;stroke-miterlimit:10;" d="M 147.1875 155.0625 L 147.015625 162.152344 "/>
<path style="fill:none;stroke-width:1.2;stroke-linecap:butt;stroke-linejoin:miter;stroke:rgb(100%,0%,0%);stroke-opacity:1;stroke-miterlimit:10;" d="M 147.015625 162.152344 L 146.847656 169.242188 "/>
<path style="fill:none;stroke-width:1.2;stroke-linecap:butt;stroke-linejoin:miter;stroke:rgb(0%,0%,0%);stroke-opacity:1;stroke-miterlimit:10;" d="M 151.761719 155.171875 L 151.59375 162.261719 "/>
<path style="fill:none;stroke-width:1.2;stroke-linecap:butt;stroke-linejoin:miter;stroke:rgb(100%,0%,0%);stroke-opacity:1;stroke-miterlimit:10;" d="M 151.59375 162.261719 L 151.421875 169.355469 "/>
<path style="fill:none;stroke-width:1.2;stroke-linecap:butt;stroke-linejoin:miter;stroke:rgb(0%,0%,0%);stroke-opacity:1;stroke-miterlimit:10;" d="M 149.472656 155.117188 L 158.515625 151.535156 "/>
<path style="fill:none;stroke-width:1.2;stroke-linecap:butt;stroke-linejoin:miter;stroke:rgb(0%,0%,100%);stroke-opacity:1;stroke-miterlimit:10;" d="M 158.515625 151.535156 L 167.5625 147.949219 "/>
<path style=" stroke:none;fill-rule:nonzero;fill:rgb(100%,100%,100%);fill-opacity:1;" d="M 145.132812 163.796875 L 153.132812 163.796875 L 153.132812 174.796875 L 145.132812 174.796875 Z M 145.132812 163.796875 "/>
<g style="fill:rgb(100%,0%,0%);fill-opacity:1;">
  <use xlink:href="#glyph0-1" x="145.132812" y="172.459961"/>
</g>
<path style="fill:none;stroke-width:1.2;stroke-linecap:butt;stroke-linejoin:miter;stroke:rgb(0%,0%,100%);stroke-opacity:1;stroke-miterlimit:10;" d="M 167.5625 147.949219 L 175.1875 153.988281 "/>
<path style="fill:none;stroke-width:1.2;stroke-linecap:butt;stroke-linejoin:miter;stroke:rgb(0%,0%,0%);stroke-opacity:1;stroke-miterlimit:10;" d="M 175.1875 153.988281 L 182.816406 160.027344 "/>
<path style=" stroke:none;fill-rule:nonzero;fill:rgb(100%,100%,100%);fill-opacity:1;" d="M 160.5625 142.449219 L 174.5625 142.449219 L 174.5625 153.449219 L 160.5625 153.449219 Z M 160.5625 142.449219 "/>
<g style="fill:rgb(0%,0%,100%);fill-opacity:1;">
  <use xlink:href="#glyph0-2" x="160.5625" y="151.112305"/>
  <use xlink:href="#glyph0-3" x="167.540039" y="151.112305"/>
</g>
<path style="fill:none;stroke-width:1.2;stroke-linecap:butt;stroke-linejoin:miter;stroke:rgb(0%,0%,0%);stroke-opacity:1;stroke-miterlimit:10;" d="M 182.816406 160.027344 L 200.902344 152.855469 "/>
<path style="fill:none;stroke-width:1.2;stroke-linecap:butt;stroke-linejoin:miter;stroke:rgb(0%,0%,0%);stroke-opacity:1;stroke-miterlimit:10;" d="M 200.902344 152.855469 L 216.15625 164.933594 "/>
<path style="fill:none;stroke-width:1.2;stroke-linecap:butt;stroke-linejoin:miter;stroke:rgb(0%,0%,0%);stroke-opacity:1;stroke-miterlimit:10;" d="M 205.269531 150.472656 L 217.472656 160.136719 "/>
<path style="fill:none;stroke-width:1.2;stroke-linecap:butt;stroke-linejoin:miter;stroke:rgb(0%,0%,0%);stroke-opacity:1;stroke-miterlimit:10;" d="M 203.734375 133.605469 L 200.902344 152.855469 "/>
<path style="fill:none;stroke-width:1.2;stroke-linecap:butt;stroke-linejoin:miter;stroke:rgb(0%,0%,0%);stroke-opacity:1;stroke-miterlimit:10;" d="M 216.15625 164.933594 L 234.242188 157.761719 "/>
<path style="fill:none;stroke-width:1.2;stroke-linecap:butt;stroke-linejoin:miter;stroke:rgb(0%,0%,0%);stroke-opacity:1;stroke-miterlimit:10;" d="M 234.242188 157.761719 L 237.074219 138.515625 "/>
<path style="fill:none;stroke-width:1.2;stroke-linecap:butt;stroke-linejoin:miter;stroke:rgb(0%,0%,0%);stroke-opacity:1;stroke-miterlimit:10;" d="M 229.996094 155.171875 L 232.261719 139.773438 "/>
<path style="fill:none;stroke-width:1.2;stroke-linecap:butt;stroke-linejoin:miter;stroke:rgb(0%,0%,0%);stroke-opacity:1;stroke-miterlimit:10;" d="M 234.242188 157.761719 L 249.496094 169.84375 "/>
<path style="fill:none;stroke-width:1.2;stroke-linecap:butt;stroke-linejoin:miter;stroke:rgb(0%,0%,0%);stroke-opacity:1;stroke-miterlimit:10;" d="M 237.074219 138.515625 L 221.824219 126.433594 "/>
<path style="fill:none;stroke-width:1.2;stroke-linecap:butt;stroke-linejoin:miter;stroke:rgb(0%,0%,0%);stroke-opacity:1;stroke-miterlimit:10;" d="M 221.824219 126.433594 L 203.734375 133.605469 "/>
<path style="fill:none;stroke-width:1.2;stroke-linecap:butt;stroke-linejoin:miter;stroke:rgb(0%,0%,0%);stroke-opacity:1;stroke-miterlimit:10;" d="M 221.699219 131.410156 L 207.230469 137.144531 "/>
<path style="fill:none;stroke-width:1.2;stroke-linecap:butt;stroke-linejoin:miter;stroke:rgb(0%,0%,0%);stroke-opacity:1;stroke-miterlimit:10;" d="M 221.824219 126.433594 L 223.238281 116.8125 "/>
<path style="fill:none;stroke-width:1.2;stroke-linecap:butt;stroke-linejoin:miter;stroke:rgb(20%,80%,80%);stroke-opacity:1;stroke-miterlimit:10;" d="M 223.238281 116.8125 L 224.65625 107.1875 "/>
<path style=" stroke:none;fill-rule:nonzero;fill:rgb(100%,100%,100%);fill-opacity:1;" d="M 221.65625 101.6875 L 227.65625 101.6875 L 227.65625 112.6875 L 221.65625 112.6875 Z M 221.65625 101.6875 "/>
<g style="fill:rgb(20%,80%,80%);fill-opacity:1;">
  <use xlink:href="#glyph0-4" x="221.65625" y="110.350586"/>
</g>
<path style="fill:none;stroke-width:1.2;stroke-linecap:butt;stroke-linejoin:miter;stroke:rgb(0%,0%,0%);stroke-opacity:1;stroke-miterlimit:10;" d="M 249.496094 169.84375 L 257.125 175.882812 "/>
<path style="fill:none;stroke-width:1.2;stroke-linecap:butt;stroke-linejoin:miter;stroke:rgb(20%,80%,80%);stroke-opacity:1;stroke-miterlimit:10;" d="M 257.125 175.882812 L 264.75 181.921875 "/>
<path style="fill:none;stroke-width:1.2;stroke-linecap:butt;stroke-linejoin:miter;stroke:rgb(0%,0%,0%);stroke-opacity:1;stroke-miterlimit:10;" d="M 249.496094 169.84375 L 243.457031 177.46875 "/>
<path style="fill:none;stroke-width:1.2;stroke-linecap:butt;stroke-linejoin:miter;stroke:rgb(20%,80%,80%);stroke-opacity:1;stroke-miterlimit:10;" d="M 243.457031 177.46875 L 237.417969 185.09375 "/>
<path style="fill:none;stroke-width:1.2;stroke-linecap:butt;stroke-linejoin:miter;stroke:rgb(0%,0%,0%);stroke-opacity:1;stroke-miterlimit:10;" d="M 249.496094 169.84375 L 255.535156 162.214844 "/>
<path style="fill:none;stroke-width:1.2;stroke-linecap:butt;stroke-linejoin:miter;stroke:rgb(20%,80%,80%);stroke-opacity:1;stroke-miterlimit:10;" d="M 255.535156 162.214844 L 261.574219 154.589844 "/>
<path style=" stroke:none;fill-rule:nonzero;fill:rgb(100%,100%,100%);fill-opacity:1;" d="M 261.75 176.421875 L 267.75 176.421875 L 267.75 187.421875 L 261.75 187.421875 Z M 261.75 176.421875 "/>
<g style="fill:rgb(20%,80%,80%);fill-opacity:1;">
  <use xlink:href="#glyph0-4" x="261.75" y="185.084961"/>
</g>
<path style=" stroke:none;fill-rule:nonzero;fill:rgb(100%,100%,100%);fill-opacity:1;" d="M 231.417969 179.59375 L 237.417969 179.59375 L 237.417969 190.59375 L 231.417969 190.59375 Z M 231.417969 179.59375 "/>
<g style="fill:rgb(20%,80%,80%);fill-opacity:1;">
  <use xlink:href="#glyph0-4" x="231.417969" y="188.256836"/>
</g>
<path style=" stroke:none;fill-rule:nonzero;fill:rgb(100%,100%,100%);fill-opacity:1;" d="M 258.574219 149.089844 L 264.574219 149.089844 L 264.574219 160.089844 L 258.574219 160.089844 Z M 258.574219 149.089844 "/>
<g style="fill:rgb(20%,80%,80%);fill-opacity:1;">
  <use xlink:href="#glyph0-4" x="258.574219" y="157.75293"/>
</g>
<path style="fill:none;stroke-width:1.2;stroke-linecap:butt;stroke-linejoin:miter;stroke:rgb(0%,0%,0%);stroke-opacity:1;stroke-miterlimit:10;" d="M 89.96875 167.050781 L 71.730469 160.277344 "/>
<path style="fill:none;stroke-width:1.2;stroke-linecap:butt;stroke-linejoin:miter;stroke:rgb(0%,0%,0%);stroke-opacity:1;stroke-miterlimit:10;" d="M 71.730469 160.277344 L 68.476562 141.09375 "/>
<path style="fill:none;stroke-width:1.2;stroke-linecap:butt;stroke-linejoin:miter;stroke:rgb(0%,0%,0%);stroke-opacity:1;stroke-miterlimit:10;" d="M 66.890625 159.125 L 64.289062 143.78125 "/>
<path style="fill:none;stroke-width:1.2;stroke-linecap:butt;stroke-linejoin:miter;stroke:rgb(0%,0%,0%);stroke-opacity:1;stroke-miterlimit:10;" d="M 56.742188 172.6875 L 71.730469 160.277344 "/>
<path style="fill:none;stroke-width:1.2;stroke-linecap:butt;stroke-linejoin:miter;stroke:rgb(0%,0%,0%);stroke-opacity:1;stroke-miterlimit:10;" d="M 68.476562 141.09375 L 50.234375 134.320312 "/>
<path style="fill:none;stroke-width:1.2;stroke-linecap:butt;stroke-linejoin:miter;stroke:rgb(0%,0%,0%);stroke-opacity:1;stroke-miterlimit:10;" d="M 50.234375 134.320312 L 35.25 146.730469 "/>
<path style="fill:none;stroke-width:1.2;stroke-linecap:butt;stroke-linejoin:miter;stroke:rgb(0%,0%,0%);stroke-opacity:1;stroke-miterlimit:10;" d="M 51.65625 139.089844 L 39.667969 149.015625 "/>
<path style="fill:none;stroke-width:1.2;stroke-linecap:butt;stroke-linejoin:miter;stroke:rgb(0%,0%,0%);stroke-opacity:1;stroke-miterlimit:10;" d="M 35.25 146.730469 L 38.503906 165.914062 "/>
<path style="fill:none;stroke-width:1.2;stroke-linecap:butt;stroke-linejoin:miter;stroke:rgb(0%,0%,0%);stroke-opacity:1;stroke-miterlimit:10;" d="M 38.503906 165.914062 L 56.742188 172.6875 "/>
<path style="fill:none;stroke-width:1.2;stroke-linecap:butt;stroke-linejoin:miter;stroke:rgb(0%,0%,0%);stroke-opacity:1;stroke-miterlimit:10;" d="M 41.921875 162.300781 L 56.511719 167.71875 "/>
</g>
</svg>

<svg xmlns="http://www.w3.org/2000/svg" xmlns:xlink="http://www.w3.org/1999/xlink" width="300pt" height="300pt" viewBox="0 0 300 300"><defs><symbol overflow="visible"><path d="M.453 1.594v-7.938h4.5v7.938zm.5-.5h3.5v-6.938h-3.5zm0 0"/></symbol><symbol overflow="visible" id="a"><path d="M3.547-5.953c-.65 0-1.164.242-1.547.72-.375.48-.563 1.13-.563 1.952 0 .835.188 1.49.563 1.967.383.48.898.72 1.547.72.644 0 1.156-.24 1.53-.72.376-.476.564-1.132.564-1.968 0-.822-.187-1.474-.562-1.954-.375-.477-.887-.72-1.53-.72zm0-.734c.914 0 1.648.312 2.203.937.55.617.828 1.438.828 2.47 0 1.042-.277 1.87-.828 2.483-.555.617-1.29.922-2.203.922-.93 0-1.668-.305-2.22-.922C.774-1.41.5-2.237.5-3.28c0-1.033.273-1.853.828-2.47.55-.625 1.29-.938 2.22-.938zm0 0"/></symbol><symbol overflow="visible" id="b"><path d="M.89-6.563H2.08l2.906 5.485v-5.484h.86V0H4.656L1.75-5.484V0H.89zm0 0"/></symbol><symbol overflow="visible" id="c"><path d="M.89-6.563h.876v2.688H5v-2.688h.89V0H5v-3.125H1.766V0H.89zm0 0"/></symbol><symbol overflow="visible" id="d"><path d="M.89-6.563h3.766v.75h-2.89v1.938h2.61v.734h-2.61V0H.89zm0 0"/></symbol></defs><g><path fill="#fff" d="M0 0h300v300H0z"/><path d="M118.895 192.813l12.078-15.254M130.367 179.766l6.836 1.882" stroke-width="1.2" stroke="#000" stroke-miterlimit="10" fill="none"/><path d="M137.203 181.648l6.84 1.88" stroke-width="1.2" stroke="#f00" stroke-miterlimit="10" fill="none"/><path d="M131.582 175.352l6.836 1.882" stroke-width="1.2" stroke="#000" stroke-miterlimit="10" fill="none"/><path d="M138.418 177.234l6.84 1.88" stroke-width="1.2" stroke="#f00" stroke-miterlimit="10" fill="none"/><path d="M130.973 177.56l-3.586-9.044" stroke-width="1.2" stroke="#000" stroke-miterlimit="10" fill="none"/><path d="M127.387 168.516l-3.586-9.043" stroke-width="1.2" stroke="#00f" stroke-miterlimit="10" fill="none"/><path d="M140.648 175.82h8v11h-8zm0 0" fill="#fff"/><use xlink:href="#a" x="140.648" y="184.483" fill="#f00"/><path d="M123.8 159.473l-9.42-2.414" stroke-width="1.2" stroke="#00f" stroke-miterlimit="10" fill="none"/><path d="M114.38 157.06l-9.427-2.415M134.22 143.04l-5.208 8.218" stroke-width="1.2" stroke="#000" stroke-miterlimit="10" fill="none"/><path d="M129.012 151.258l-5.21 8.215" stroke-width="1.2" stroke="#00f" stroke-miterlimit="10" fill="none"/><path d="M120.8 153.973h7v11h-7zm0 0" fill="#fff"/><use xlink:href="#b" x="120.801" y="162.636" fill="#00f"/><path d="M104.953 154.645l-1.23-19.418" stroke-width="1.2" stroke="#000" stroke-miterlimit="10" fill="none"/><path d="M104.953 154.645m-2.605 1.48l.664.805m-3.274.68l1.332 1.605m-3.94-.125l1.995 2.41m-4.602-.926l2.66 3.21m-5.27-1.73l3.325 4.016m-5.933-2.53l3.992 4.82m-5.52-3.954l4.383 5.29" stroke="#000" stroke-miterlimit="10" fill="none"/><path d="M103.723 135.227l18.09-7.172M107.22 138.766l14.47-5.74M121.813 128.055l12.406 14.984" stroke-width="1.2" stroke="#000" stroke-miterlimit="10" fill="none"/><path d="M134.22 143.04l16.06-11.505-4.91-4.805zm0 0"/><path d="M134.22 143.04l15.253 12.077M147.188 155.063l-.172 7.09" stroke-width="1.2" stroke="#000" stroke-miterlimit="10" fill="none"/><path d="M147.016 162.152l-.168 7.09" stroke-width="1.2" stroke="#f00" stroke-miterlimit="10" fill="none"/><path d="M151.762 155.172l-.168 7.09" stroke-width="1.2" stroke="#000" stroke-miterlimit="10" fill="none"/><path d="M151.594 162.262l-.172 7.093" stroke-width="1.2" stroke="#f00" stroke-miterlimit="10" fill="none"/><path d="M149.473 155.117l9.043-3.582" stroke-width="1.2" stroke="#000" stroke-miterlimit="10" fill="none"/><path d="M158.516 151.535l9.047-3.586" stroke-width="1.2" stroke="#00f" stroke-miterlimit="10" fill="none"/><path d="M145.133 163.797h8v11h-8zm0 0" fill="#fff"/><use xlink:href="#a" x="145.133" y="172.46" fill="#f00"/><path d="M167.563 147.95l7.625 6.038" stroke-width="1.2" stroke="#00f" stroke-miterlimit="10" fill="none"/><path d="M175.188 153.988l7.628 6.04" stroke-width="1.2" stroke="#000" stroke-miterlimit="10" fill="none"/><path d="M160.563 142.45h14v11h-14zm0 0" fill="#fff"/><g fill="#00f"><use xlink:href="#b" x="160.563" y="151.112"/><use xlink:href="#c" x="167.54" y="151.112"/></g><path d="M182.816 160.027l18.086-7.172M200.902 152.855l15.254 12.08M205.27 150.473l12.203 9.664M203.734 133.605l-2.832 19.25M216.156 164.934l18.086-7.172M234.242 157.762l2.832-19.246M229.996 155.172l2.266-15.4M234.242 157.762l15.254 12.082M237.074 138.516l-15.25-12.082M221.824 126.434l-18.09 7.17M221.7 131.41l-14.47 5.735M221.824 126.434l1.414-9.62" stroke-width="1.2" stroke="#000" stroke-miterlimit="10" fill="none"/><path d="M223.238 116.813l1.418-9.626" stroke-width="1.2" stroke="#3cc" stroke-miterlimit="10" fill="none"/><path d="M221.656 101.688h6v11h-6zm0 0" fill="#fff"/><use xlink:href="#d" x="221.656" y="110.351" fill="#3cc"/><path d="M249.496 169.844l7.63 6.04" stroke-width="1.2" stroke="#000" stroke-miterlimit="10" fill="none"/><path d="M257.125 175.883l7.625 6.04" stroke-width="1.2" stroke="#3cc" stroke-miterlimit="10" fill="none"/><path d="M249.496 169.844l-6.04 7.625" stroke-width="1.2" stroke="#000" stroke-miterlimit="10" fill="none"/><path d="M243.457 177.47l-6.04 7.624" stroke-width="1.2" stroke="#3cc" stroke-miterlimit="10" fill="none"/><path d="M249.496 169.844l6.04-7.63" stroke-width="1.2" stroke="#000" stroke-miterlimit="10" fill="none"/><path d="M255.535 162.215l6.04-7.625" stroke-width="1.2" stroke="#3cc" stroke-miterlimit="10" fill="none"/><path d="M261.75 176.422h6v11h-6zm0 0" fill="#fff"/><use xlink:href="#d" x="261.75" y="185.085" fill="#3cc"/><path d="M231.418 179.594h6v11h-6zm0 0" fill="#fff"/><use xlink:href="#d" x="231.418" y="188.257" fill="#3cc"/><path d="M258.574 149.09h6v11h-6zm0 0" fill="#fff"/><use xlink:href="#d" x="258.574" y="157.753" fill="#3cc"/><path d="M89.97 167.05l-18.24-6.773M71.73 160.277l-3.253-19.183M66.89 159.125l-2.6-15.344M56.742 172.688l14.988-12.41M68.477 141.094l-18.243-6.774M50.234 134.32L35.25 146.73M51.656 139.09l-11.988 9.926M35.25 146.73l3.254 19.184M38.504 165.914l18.238 6.774M41.922 162.3l14.59 5.42" stroke-width="1.2" stroke="#000" stroke-miterlimit="10" fill="none"/></g></svg>
